automatic/svg/Sony - PlayStation 2 SCPH-90000.svg

<?xml version="1.0" encoding="UTF-8" standalone="no"?>
<svg
   xmlns:dc="http://purl.org/dc/elements/1.1/"
   xmlns:cc="http://creativecommons.org/ns#"
   xmlns:rdf="http://www.w3.org/1999/02/22-rdf-syntax-ns#"
   xmlns:svg="http://www.w3.org/2000/svg"
   xmlns="http://www.w3.org/2000/svg"
   viewBox="0 0 320 320"
   height="320"
   width="320"
   xml:space="preserve"
   version="1.1"
   id="svg2"><metadata
     id="metadata8"><rdf:RDF><cc:Work
         rdf:about=""><dc:format>image/svg+xml</dc:format><dc:type
           rdf:resource="http://purl.org/dc/dcmitype/StillImage" /></cc:Work></rdf:RDF></metadata><defs
     id="defs6" /><g
     transform="matrix(1.25,0,0,-1.25,0,320)"
     id="g10"><path
       id="path12"
       style="fill:#f2f2f2;fill-opacity:1;fill-rule:nonzero;stroke:none"
       d="m 240,56 -124,0 0,144 124,0 0,-144 z m -224,144 96,0 0,-144 -96,0 0,144 z m 224,4 -124,0 -4,0 -96,0 -4,0 0,-4 0,-144 0,-4 4,0 96,0 4,0 124,0 4,0 0,4 0,144 0,4 -4,0 z" /></g></svg>

<?xml version="1.0" encoding="UTF-8" standalone="no"?>
<svg
   xmlns:dc="http://purl.org/dc/elements/1.1/"
   xmlns:cc="http://creativecommons.org/ns#"
   xmlns:rdf="http://www.w3.org/1999/02/22-rdf-syntax-ns#"
   xmlns:svg="http://www.w3.org/2000/svg"
   xmlns="http://www.w3.org/2000/svg"
   viewBox="0 0 309.33331 202.66665"
   height="202.66666"
   width="309.33331"
   xml:space="preserve"
   id="svg2"
   version="1.1"><metadata
     id="metadata8"><rdf:RDF><cc:Work
         rdf:about=""><dc:format>image/svg+xml</dc:format><dc:type
           rdf:resource="http://purl.org/dc/dcmitype/StillImage" /></cc:Work></rdf:RDF></metadata><defs
     id="defs6" /><g
     transform="matrix(1.3333333,0,0,-1.3333333,-16,271.99999)"
     id="g10"><path
       id="path12"
       style="fill:#f2f2f2;fill-opacity:1;fill-rule:nonzero;stroke:none"
       d="M 240,56 H 116 V 200 H 240 Z M 16,200 h 96 V 56 H 16 Z m 224,4 H 116 112 16 12 V 200 56 52 h 4 96 4 124 4 v 4 144 4 z" /></g></svg>
